X:1
T:Let Us Send the Gospel Message
T:Thomas Noble Beall
T:Let Us Send the Gospel Message
T:Public Domain
T:Public Domain
T:Public Domain
C:Thomas Noble Beall
Z:Public Domain
%%score 1 ( 2 3 )
L:1/8
M:4/4
K:Bb
V:1 treble 
V:2 bass 
V:3 bass 
V:1
 [B,D][CE] | [DF]>[DF] [DF][DF] [DF]<[DF] [FB][Fc] | [Fd]>[Fd] [Fd][Fd] [Fd]2 [Fd][Fd] | %3
w: 1.~Let us|send the Gos- pel mes- sage Far a-|cross the o- cean wave, To the|
w: 2.~In our|minds now, let us pic- ture Such a|peo- ple, such a land, And our-|
w: 3.~Breth- ren,|sis- ters, ’tis our du- ty, And our|pri- vi- lege as well, To this|
 [Fc][Fc] [Fc]>[Fc] [Fc]<[Fc] [Fd][Ec] | [DB]>[DB] [EA][EG] [DF]2 [B,D][CE] | %5
w: mil- lions who have ne- ver Heard of|Je- sus’ power to save; To the|
w: selves a- mong the num- ber, With no|sign of help- ing hand. O the|
w: lost and dy- ing peo- ple Of a|Sav- ior’s love to tell. Je- sus|
 [DF]>[DF] [DF][DF] [DF]<[DF] [FB][Fc] | [Fd]>[Fd] [^Fd][Fd] [Gd]2 [Gc][Fd] | %7
w: peo- ple who are liv- ing In a|land of dark- est gloom Where they|
w: pain, the bit- ter sor- row Of a|life in such a place, Ne’er to|
w: said, “Go teach all na- tions”; Dare we|slight His last com- mand? No, we’ll|
 [Ee]>[Ee] [Fd][Gc] [FB]<[FB] [DB][=Ec] | [Fd]>[DB] [CA][Ec] [DB]2 ||"^Refrain" [DF][DF] | %10
w: have no thought of Hea- ven, And no|hope be- yond the tomb.|Let us|
w: feel the peace and com- fort Of the|Sav- ior’s par- doning grace!||
w: send the Gos- pel mes- sage In- to|ev- ery hea- then land.||
 [DB]3 [Ec] [Fd]<[Fd] [DF][DF] | [EG]3 [FA] [GB]<[GB] [FA][EG] | %12
w: send the mes- sage, bless- èd|Gos- pel mes- sage, That the|
w: ||
w: ||
 [DF][DF][FB][Fc] [Fd]<[Fd] [Fc][=EB] | [Fc]6 [EF][EF] | [DB]3 [Ec] [Fd]<[Fd] [Fd][Fd] | %15
w: na- tions may all hear of Je- sus’|name; Let us|send the mes- sage, bless- èd|
w: |||
w: |||
 [Gc]3 [Fd] [Ee]<[Ee] [Fd][Gc] | [FB]<[FB] [DB][=Ec] [Fd]>[DB] [CA][_Ec] | [DB]6 |] %18
w: Gos- pel mes- sage, That the|hea- then may be saved from sin and|shame.|
w: |||
w: |||
V:2
 [B,,F,][B,,F,] | [B,,B,]>[B,,B,] [B,,B,][B,,B,] [B,,B,]<[B,,B,] [D,B,][F,A,] | %2
w: ~ ~|~ ~ ~ ~ ~ ~ ~ ~|
 B,>B, B,B, B,2 B,B, | [F,A,][F,A,] [F,A,]>[F,A,] [F,A,]<[F,A,] [F,B,][F,A,] | %4
w: ~ ~ ~ ~ ~ ~ ~|~ ~ ~ ~ ~ ~ ~ ~|
 [B,,B,]>[B,,F,] [B,,G,][B,,A,] [B,,B,]2 [B,,F,][B,,F,] | %5
w: ~ ~ ~ ~ ~ ~ ~|
 [B,,B,]>[B,,B,] [B,,B,][B,,B,] [B,,B,]<[B,,B,] [D,B,][F,A,] | %6
w: ~ ~ ~ ~ ~ ~ ~ ~|
 B,>_B, [A,C][A,C] [G,_B,]2 [E,C][D,=B,] | [C,C]>[C,C] [D,=B,][E,C] [F,D]<[F,D] [G,B,][G,B,] | %8
w: ~ ~ ~ ~ ~ ~ ~|~ ~ ~ ~ Let us send the|
 [F,B,]>F, F,F, [B,,F,]2 || [B,,B,][B,,B,] | %10
w: Gos- pel mes- sage, Let|Gos- pel|
 [B,,F,]>[B,,F,] [B,,F,][B,,F,] [B,,B,]<[B,,B,] [B,,B,][B,,B,] | %11
w: mes- sage, ~ ~ ~ ~ ~ ~|
 [E,B,]>[E,B,] [E,B,][E,B,] [E,E]<[E,E] [E,B,][E,B,] | %12
w: ~ ~ ~ ~ ~ Let us send|
 [B,,B,][B,,B,][D,B,][F,A,] B,<B, [A,C][G,C] | [F,A,]6 [F,A,][F,A,] | %14
w: the Gos- pel mes- sage, Let us send|pel mes- sage,|
 [B,,B,]>[B,,F,] [B,,F,][B,,F,] [B,,B,]<[B,,B,] [B,,B,][B,,B,] | %15
w: |
 [E,G,]>[E,G,] [E,G,][D,=B,] [C,C]<[C,C] [D,B,][E,C] | [F,D]<[F,D] [G,B,][G,B,] [F,B,]>F, F,F, | %17
w: ||
 [B,,F,]6 |] %18
w: |
V:3
 x2 | x8 | B,>B, B,B, B,2 B,B, | x8 | x8 | x8 | =B,>=B, x6 | x8 | x3/2 F,/ F,F, x2 || x2 | x8 | %11
w: ||~ ~ ~ ~ ~ ~ ~||||~ ~||us send the|||
 x8 | x4 B,<B, x2 | x8 | x8 | x8 | x11/2 F,/ F,F, | x6 |] %18
w: |the Gos-||||||

